src/catppuccin-macchiato-mauve-cursors/dnd-move_24.svg

<?xml version="1.0" encoding="UTF-8" standalone="no"?>
<svg
   id="svg6031"
   width="24"
   height="24"
   version="1.1"
   sodipodi:docname="dnd-move_24.svg"
   inkscape:version="1.1.2 (0a00cf5339, 2022-02-04)"
   xmlns:inkscape="http://www.inkscape.org/namespaces/inkscape"
   xmlns:sodipodi="http://sodipodi.sourceforge.net/DTD/sodipodi-0.dtd"
   xmlns="http://www.w3.org/2000/svg"
   xmlns:svg="http://www.w3.org/2000/svg">
  <sodipodi:namedview
     id="namedview15"
     pagecolor="#ffffff"
     bordercolor="#666666"
     borderopacity="1.0"
     inkscape:pageshadow="2"
     inkscape:pageopacity="0.0"
     inkscape:pagecheckerboard="0"
     showgrid="false"
     inkscape:zoom="21.31"
     inkscape:cx="16.001877"
     inkscape:cy="16.001877"
     inkscape:window-width="1896"
     inkscape:window-height="1020"
     inkscape:window-x="9"
     inkscape:window-y="45"
     inkscape:window-maximized="1"
     inkscape:current-layer="svg6031" />
  <defs
     id="defs6033">
    <filter
       id="filter852"
       style="color-interpolation-filters:sRGB"
       width="1.098"
       height="1.094"
       x="-0.050000001"
       y="-0.050000001">
      <feGaussianBlur
         id="feGaussianBlur854"
         stdDeviation=".43" />
    </filter>
    <filter
       id="filter901"
       style="color-interpolation-filters:sRGB"
       width="1.098"
       height="1.094"
       x="-0.050000001"
       y="-0.050000001">
      <feGaussianBlur
         id="feGaussianBlur903"
         stdDeviation=".43" />
    </filter>
    <filter
       id="filter857"
       style="color-interpolation-filters:sRGB"
       width="1.12"
       height="1.12"
       x="-0.059999999"
       y="-0.059999999">
      <feGaussianBlur
         id="feGaussianBlur859"
         stdDeviation=".425" />
    </filter>
    <filter
       id="filter825"
       style="color-interpolation-filters:sRGB"
       width="1.1440001"
       height="1.1440001"
       x="-0.071999997"
       y="-0.072000004">
      <feGaussianBlur
         id="feGaussianBlur827"
         stdDeviation=".51" />
    </filter>
    <filter
       inkscape:collect="always"
       style="color-interpolation-filters:sRGB"
       id="filter1318"
       x="-0.0235336"
       y="-0.023506753"
       width="1.0470672"
       height="1.0470135">
      <feGaussianBlur
         inkscape:collect="always"
         stdDeviation="0.12733027"
         id="feGaussianBlur1320" />
    </filter>
  </defs>
  <path
     style="color:#000000;opacity:0.1;fill:#000000;fill-opacity:1;stroke-linecap:round;stroke-linejoin:round;-inkscape-stroke:none;filter:url(#filter1318)"
     d="M 14.068184,5.5038617 C 13.523039,5.5379267 13.043958,5.7640919 12.695138,6.1190961 12.33108,5.8821457 11.935944,5.6699857 11.456856,5.6991742 c -9.07e-4,5.53e-5 -10e-4,-0.00201 -0.002,-0.00195 h -0.002 c -0.646998,0.039641 -1.148777,0.3780865 -1.5018595,0.8457 C 9.620559,6.3878259 9.2946222,6.209474 8.8982621,6.2382367 a 1.0001,1.0001 0 0 0 -0.015625,0 C 7.6422998,6.3492529 6.7898508,7.4498084 7.0037308,8.679643 a 1.0001,1.0001 0 0 0 0.00195,0.00586 L 7.2322465,9.9335493 C 6.8853798,10.18792 6.3950737,10.50961 5.9920121,11.105425 c -0.4360258,0.644542 -0.6416877,1.625221 -0.3203125,2.642578 0.3423251,1.083678 0.9702849,2.168504 1.6914062,3.050781 0.3605607,0.441139 0.7419689,0.830456 1.1601563,1.136719 0.4181874,0.306263 0.8790188,0.568405 1.4941409,0.564453 h 6.453125 a 1.0001,1.0001 0 0 0 0.910156,-0.587891 c 1.358494,-2.996694 1.105491,-5.633618 1.09375,-7.378906 l -0.0078,-1.2050785 C 18.462909,8.7705112 18.302562,8.2321134 17.950997,7.7694867 17.600841,7.3087148 16.963572,6.9279715 16.259591,6.976518 16.177591,6.981668 16.128768,7.051431 16.050606,7.066362 15.786279,6.1556987 15.089489,5.4390972 14.068184,5.5038617 Z m 0.125,1.9960938 a 1.0001,1.0001 0 0 0 0.002,0 c -0.04205,0.0027 0.09108,0.1369959 0.09961,0.09375 l -0.185547,1.5136719 c -0.02217,0.1789182 -0.01311,0.3662202 0.0625,0.5722656 0.07561,0.2060454 0.22159,0.471239 0.589844,0.628907 0.368254,0.157667 0.89657,0.01578 1.126953,-0.195313 0.230383,-0.2110914 0.294477,-0.4071607 0.339844,-0.5703127 l 0.128906,-0.4628907 a 1.0001,1.0001 0 0 0 0.0098,-0.039063 c 0.0045,-0.019359 7.87e-4,-0.00513 0.0039,-0.015625 0.04221,0.073715 0.09493,0.1996963 0.0957,0.3164063 l 0.0078,1.2050791 c 0.01167,1.744103 0.08326,3.707267 -0.763731,5.953125 h -5.69922 a 1.0001,1.0001 0 0 0 -0.0078,0 C 10.08631,16.499425 9.9305891,16.487505 9.7049027,16.322222 9.4792164,16.156938 9.190118,15.875901 8.9099809,15.533159 8.3497066,14.847675 7.8172732,13.904053 7.5779496,13.14644 7.4078685,12.608025 7.490297,12.460026 7.6482621,12.226519 c 0.00903,-0.01336 0.040592,-0.03138 0.050781,-0.04492 a 1.0001,1.0001 0 0 0 1.7363282,-0.464844 c 0,0 0.00532,-0.122237 0.011719,-0.257813 0.0064,-0.135575 0.020053,-0.196632 0.011719,-0.40625 a 1.0001,1.0001 0 0 0 -0.015625,-0.138671 l -0.46875,-2.578126 c 0.0074,0.042561 0.096208,-0.081532 0.080078,-0.097656 0.00366,0.021591 0.1344694,0.1373773 0.125,0.072266 l 0.085937,0.6542969 c 0.074396,0.560356 0.4090906,0.9185523 0.9511717,1.0332031 0.271041,0.057325 0.698469,0.010565 1,-0.2792969 0.301531,-0.2898622 0.357215,-0.6730494 0.339844,-0.921875 l -0.07031,-1.0078125 c 0.0025,0.038542 0.12016,-0.097535 0.08984,-0.095703 a 1.0001,1.0001 0 0 0 0.002,0 c -0.03228,0.00203 0.103187,0.1265742 0.101563,0.085937 a 1.0001,1.0001 0 0 0 0.002,0.015625 l 0.04687,0.875 c 0.01157,0.2114235 0.06212,0.4484011 0.228515,0.6835937 0.166393,0.2351926 0.496197,0.4641841 0.875,0.4765625 0.378804,0.012378 0.7176,-0.1925819 0.900391,-0.4179687 0.182791,-0.2253869 0.249862,-0.4653885 0.269531,-0.6835938 l 0.09766,-1.0917969 a 1.0001,1.0001 0 0 0 0.0039,-0.048828 c -0.0012,0.028356 0.110534,-0.089173 0.08976,-0.087893 z m 2.205079,1.46875 c -0.0057,4.239e-4 -0.0032,0.00926 -0.01563,0.00391 -3e-4,3.64e-5 3.26e-4,-0.00197 0,-0.00195 a 1.0001,1.0001 0 0 0 0.01563,-0.00195 z"
     id="path1280" />
  <path
     style="color:#000000;fill:#24273A;stroke-linecap:round;stroke-linejoin:round;-inkscape-stroke:none;fill-opacity:1"
     d="m 13.568359,5.0039062 c -0.545145,0.034065 -1.024226,0.2602302 -1.373046,0.6152344 -0.364058,-0.2369504 -0.759194,-0.4491104 -1.238282,-0.4199219 -9.07e-4,5.53e-5 -0.001,-0.00201 -0.002,-0.00195 h -0.002 C 10.306033,5.2369098 9.8042541,5.5753552 9.4511719,6.0429687 9.1207344,5.8878704 8.7947976,5.7095185 8.3984375,5.7382812 a 1.0001,1.0001 0 0 0 -0.015625,0 C 7.1424752,5.8492974 6.2900262,6.9498529 6.5039062,8.1796875 a 1.0001,1.0001 0 0 0 0.00195,0.00586 L 6.7324219,9.4335938 C 6.3855552,9.6879648 5.8952491,10.009654 5.4921875,10.605469 5.0561617,11.250011 4.8504998,12.23069 5.171875,13.248047 c 0.3423251,1.083678 0.9702849,2.168504 1.6914062,3.050781 0.3605607,0.441139 0.7419689,0.830456 1.1601563,1.136719 C 8.4416249,17.74181 8.9024563,18.003952 9.5175781,18 h 6.4531249 a 1.0001,1.0001 0 0 0 0.910156,-0.587891 c 1.358494,-2.996694 1.105491,-5.633618 1.09375,-7.378906 l -0.0078,-1.205078 C 17.963084,8.2705557 17.802737,7.7321579 17.451172,7.2695312 17.101016,6.8087593 16.463747,6.428016 15.759766,6.4765625 c -0.082,0.00515 -0.130823,0.074913 -0.208985,0.089844 -0.264327,-0.9106633 -0.961117,-1.6272648 -1.982422,-1.5625 z M 13.693359,7 a 1.0001,1.0001 0 0 0 0.002,0 c -0.04205,0.0027 0.09108,0.1369959 0.09961,0.09375 l -0.185547,1.5136719 c -0.02217,0.1789182 -0.01311,0.3662202 0.0625,0.5722656 0.07561,0.2060454 0.22159,0.4712385 0.589844,0.6289063 0.368254,0.1576677 0.89657,0.015779 1.126953,-0.1953125 0.230383,-0.2110912 0.294477,-0.4071605 0.339844,-0.5703125 l 0.128906,-0.4628907 a 1.0001,1.0001 0 0 0 0.0098,-0.039063 c 0.0045,-0.019359 7.87e-4,-0.00513 0.0039,-0.015625 0.04221,0.073715 0.09493,0.1996963 0.0957,0.3164063 l 0.0078,1.2050781 C 15.986342,11.790978 16.057927,13.754142 15.210938,16 H 9.5117188 a 1.0001,1.0001 0 0 0 -0.00781,0 C 9.5864855,15.999469 9.4307645,15.987549 9.2050781,15.822266 8.9793918,15.656982 8.6902934,15.375945 8.4101563,15.033203 7.849882,14.347719 7.3174486,13.404097 7.078125,12.646484 6.9080439,12.108069 6.9904724,11.96007 7.1484375,11.726563 c 0.00903,-0.01336 0.040592,-0.03138 0.050781,-0.04492 a 1.0001,1.0001 0 0 0 1.7363282,-0.464844 c 0,0 0.00532,-0.122237 0.011719,-0.257813 0.0064,-0.135575 0.020053,-0.196632 0.011719,-0.40625 a 1.0001,1.0001 0 0 0 -0.015625,-0.138671 l -0.46875,-2.5781255 c 0.0074,0.042561 0.096208,-0.081532 0.080078,-0.097656 0.00366,0.021591 0.1344694,0.1373773 0.125,0.072266 l 0.085937,0.6542969 c 0.074396,0.560356 0.4090906,0.9185523 0.9511719,1.0332031 0.2710406,0.057325 0.6984691,0.010565 1.0000001,-0.2792969 0.301531,-0.2898622 0.357215,-0.6730494 0.339844,-0.921875 l -0.07031,-1.0078125 c 0.0025,0.038542 0.12016,-0.097535 0.08984,-0.095703 a 1.0001,1.0001 0 0 0 0.002,0 c -0.03228,0.00203 0.103187,0.1265742 0.101563,0.085937 a 1.0001,1.0001 0 0 0 0.002,0.015625 l 0.04687,0.875 c 0.01157,0.2114235 0.06212,0.4484011 0.228515,0.6835937 0.166393,0.2351926 0.496197,0.4641841 0.875,0.4765625 0.378804,0.012378 0.7176,-0.1925819 0.900391,-0.4179687 0.182791,-0.2253869 0.249862,-0.4653885 0.269531,-0.6835938 l 0.09766,-1.0917969 a 1.0001,1.0001 0 0 0 0.0039,-0.048828 C 13.602379,7.116249 13.714134,6.9987196 13.693359,7 Z m 2.205079,1.46875 c -0.0057,4.239e-4 -0.0032,0.00926 -0.01563,0.00391 -3e-4,3.64e-5 3.26e-4,-0.00197 0,-0.00195 a 1.0001,1.0001 0 0 0 0.01563,-0.00195 z"
     id="path1184" />
  <path
     id="path4236-1-58-5-6-0"
     style="display:inline;fill:#C6A0F6;fill-opacity:1;stroke:none;stroke-width:0.728743"
     d="M 11.015303,6.1946963 C 10.441272,6.2293752 9.95121,6.7822041 9.988148,7.3534611 l 0.07078,1.0125877 C 10.076898,8.6234458 9.783437,8.5307253 9.75717,8.3328798 L 9.668729,7.6667064 C 9.590245,7.1270474 9.0173883,6.6955036 8.4710402,6.7351505 7.8699036,6.7889551 7.3865835,7.415526 7.4895368,8.0075193 L 7.958967,10.592697 c 0.00367,0.09231 -0.022792,0.568021 -0.022792,0.568021 L 7.4340103,10.138279 c -0.7335404,0.549933 -1.8004817,1.253182 -1.3090249,2.808955 0.5816493,1.841293 2.3210754,4.059593 3.3861616,4.05275 l 6.459621,1.5e-5 c 1.249905,-2.757159 1.016605,-5.134996 1.00433,-6.959675 l -0.0081,-1.2056606 C 16.962398,8.1438049 16.517874,7.4202905 15.82572,7.471411 15.35752,7.498097 15.001193,7.8575204 14.894449,8.3120828 l -0.128737,0.4629805 c -0.05553,0.199702 -0.18489,0.1193433 -0.164471,-0.045445 L 14.795631,7.1607 c 0.04002,-0.6167207 -0.544544,-1.1986082 -1.164109,-1.1587647 -0.53556,0.033008 -1.005769,0.5114632 -1.027156,1.0451605 l -0.09838,1.0917796 C 12.482946,8.3944743 12.242897,8.400206 12.227354,8.1161944 L 12.179439,7.2399308 C 12.156287,6.6607707 11.596461,6.1581485 11.015329,6.1947705 Z" />
</svg>

<svg xmlns="http://www.w3.org/2000/svg" width="24" height="24">
    <defs>
        <filter id="a" width="1.047" height="1.047" x="-.024" y="-.024" style="color-interpolation-filters:sRGB">
            <feGaussianBlur stdDeviation=".127"/>
        </filter>
    </defs>
    <path d="M14.068 5.504a2.1 2.1 0 0 0-1.373.615c-.364-.237-.76-.449-1.238-.42l-.002-.002h-.002c-.647.04-1.149.378-1.502.846-.33-.155-.656-.334-1.053-.305h-.015a2.07 2.07 0 0 0-1.88 2.442l.003.006.226 1.248c-.347.254-.837.576-1.24 1.171-.436.645-.642 1.626-.32 2.643.342 1.084.97 2.169 1.691 3.05.36.442.742.831 1.16 1.138s.88.568 1.494.564h6.454a1 1 0 0 0 .91-.588c1.358-2.997 1.105-5.634 1.093-7.379l-.007-1.205a2.56 2.56 0 0 0-.516-1.559c-.35-.46-.987-.841-1.691-.792-.082.005-.131.074-.21.09-.264-.911-.96-1.628-1.982-1.563m.125 1.996h.002c-.042.003.091.137.1.094l-.186 1.513c-.022.18-.013.367.063.573.075.206.221.47.59.629.368.157.896.015 1.127-.196.23-.21.294-.407.34-.57l.128-.463.01-.039c.005-.02 0-.005.004-.016.042.074.095.2.096.317l.007 1.205c.012 1.744.084 3.707-.763 5.953h-5.707c.082 0-.073-.012-.3-.178a4.7 4.7 0 0 1-.794-.789c-.56-.685-1.093-1.629-1.332-2.387-.17-.538-.088-.686.07-.92.01-.013.04-.03.051-.044a1 1 0 0 0 1.736-.465l.012-.258c.006-.136.02-.197.012-.406a1 1 0 0 0-.016-.139l-.469-2.578c.008.042.097-.082.08-.098.004.022.135.138.126.073l.085.654c.075.56.41.918.952 1.033.27.057.698.01 1-.28a1.17 1.17 0 0 0 .34-.921l-.07-1.008c.002.039.12-.098.089-.096h.002c-.032.002.103.127.102.086l.002.016.046.875c.012.211.063.448.229.683s.496.465.875.477.718-.193.9-.418a1.23 1.23 0 0 0 .27-.684l.098-1.091.003-.05c0 .03.111-.088.09-.087m2.205 1.469c-.005 0-.003.009-.015.004V8.97z" style="color:#000;opacity:.1;fill:#000;fill-opacity:1;stroke-linecap:round;stroke-linejoin:round;-inkscape-stroke:none;filter:url(#a)"/>
    <path d="M13.568 5.004a2.1 2.1 0 0 0-1.373.615c-.364-.237-.759-.449-1.238-.42l-.002-.002h-.002c-.647.04-1.149.378-1.502.846-.33-.155-.656-.333-1.053-.305h-.015a2.07 2.07 0 0 0-1.88 2.442l.003.006.226 1.248c-.346.254-.837.576-1.24 1.171-.436.645-.642 1.626-.32 2.643.342 1.084.97 2.169 1.691 3.05.36.442.742.831 1.16 1.138.419.306.88.568 1.495.564h6.453a1 1 0 0 0 .91-.588c1.358-2.997 1.105-5.634 1.094-7.379l-.008-1.205a2.56 2.56 0 0 0-.516-1.558c-.35-.461-.987-.842-1.691-.793-.082.005-.131.074-.21.09-.264-.911-.96-1.628-1.982-1.563M13.693 7h.002c-.042.003.091.137.1.094l-.186 1.513c-.022.18-.013.367.063.573s.222.47.59.629c.368.157.896.015 1.127-.196.23-.21.294-.407.34-.57l.128-.463.01-.039.004-.016c.042.074.095.2.096.317l.008 1.205c.011 1.744.083 3.707-.764 5.953H9.504c.082 0-.073-.012-.299-.178a4.7 4.7 0 0 1-.795-.789c-.56-.685-1.093-1.629-1.332-2.387-.17-.538-.088-.686.07-.92.01-.013.041-.03.051-.044a1 1 0 0 0 1.737-.465l.011-.258c.007-.136.02-.197.012-.406a1 1 0 0 0-.016-.139l-.468-2.578c.007.043.096-.082.08-.098.003.022.134.138.125.073l.086.654c.074.56.409.918.95 1.033.272.057.7.01 1-.28a1.17 1.17 0 0 0 .34-.921l-.07-1.008c.003.039.12-.097.09-.096h.002c-.032.002.103.127.102.086l.002.016.047.875c.011.211.062.448.228.684.167.235.496.464.875.476s.718-.193.9-.418a1.23 1.23 0 0 0 .27-.683l.098-1.092.004-.05c-.002.03.11-.088.09-.087m2.205 1.469c-.005 0-.003.009-.015.004V8.47z" style="color:#000;fill:#24273a;stroke-linecap:round;stroke-linejoin:round;-inkscape-stroke:none;fill-opacity:1"/>
    <path d="M11.015 6.195c-.574.034-1.064.587-1.027 1.158l.07 1.013c.019.257-.275.165-.3-.033l-.09-.666c-.078-.54-.65-.971-1.197-.932-.601.054-1.084.68-.981 1.273l.469 2.585c.004.092-.023.568-.023.568l-.502-1.023c-.734.55-1.8 1.253-1.309 2.81.582 1.84 2.321 4.059 3.386 4.052h6.46c1.25-2.757 1.016-5.135 1.004-6.96l-.008-1.205c-.005-.691-.45-1.415-1.141-1.364-.468.027-.825.387-.932.841l-.128.463c-.056.2-.185.12-.165-.045l.195-1.57c.04-.616-.545-1.198-1.164-1.158-.536.033-1.006.511-1.028 1.045l-.098 1.092c-.023.255-.263.261-.279-.023l-.048-.876c-.023-.58-.583-1.082-1.164-1.045" style="display:inline;fill:#c6a0f6;fill-opacity:1;stroke:none;stroke-width:.728743"/>
</svg>
